!!!OTL: Herzallerliebstes Sch&auml;tzel (118), S. 276
!!!id: T0283
**kern
*clefG2
*k[]
*G:
{8d
=1
4g
8g
8g
=2
8g
8b
8dd
8b
=3
4b
4a
=4
4d}
8r
=5
{8d
=6
4cc
8cc
8cc
=7
4dd
8b
8a
=8
4b}
8r
=9
{8dd
=10
*M3/4
8dd
8cc
4.b
8dd
=11
*M2/4
4dd
8a
8a
=12
8a
8b
8cc}
=13
{8dd
=14
4dd
8g
8g
=15
8g
8b
8dd
8b
=16
4b
8a
8a
=17
4a}
=18
{8g
8b
=19
4dd
8dd
8ee
=20
4dd
8cc
8a
=21
4b
4a
=22
4g}
8r
==
*-
!!!minrhy: 8
!!!meters: 2/4 3/4 ]  ZZ[5
!!!cut: Herzallerliebstes Sch&auml;tzel (118), S. 276
!!!reg: Luxemburg
!!!trd: Singendes Volk, Esch-Alzette 1937 posth.
!!!rhy1: X  X_XX  XXXX  X_X_  X_0
!!!rhy2: X  X_XX  X_XX  X_0
!!!key: T0283  08  G 2/4 3/4 ]  ZZ[5
!!!mod: SECHSTONSKALA DUR ?]  AMBITUS[9
!!!kad: -53421
!!!akz: 113-5_453_552_5132_5531_
!!!fot: 'a__b__c__aw_d__
!!!for: 'a__b__c__d__bw_
!!!fok: '^__^a_Vd_Sd_^__
!! PHRAS[AUFTAKTIG]
!!!fkt: Liebeslieder
!!!bem: Reuland, fff Katharina Prim, 18.12.1910
!! THILL, Mathias:
!! PR[49] 2K[2] 2G[12] 3K[5] 3G[0] 4A[2] 4Ü[0] 5A[0] 6K[0] 6G[0]
!! 7K[0] 7G[0] 8A[0] MEHR[0] SI[22] ABS[41] SR[15] SP[7]
!! ST[8] 2k[7] 2g[20] 3k[2] 3g[0] 4d[0] 4ü[0] 5d[0] 6k[0] 6g[0]
!! 7k[0] 7g[0] 8d[0] mehr[0] si[29] dm[-7] sr[27] sp[2]
!! 1F[66] 2F[27] 3F[5] 4F[0] LF[0] 2P[2] 3P[0] 4P[0] TRI[0] DF[4] AB[44]
!! TF[0] U3K[0] U3[0] U4[0] U4Ü[0] U5[0] U6K[0] U6[0] U7K[0] U7[0]
!! N1[0] N2K[0] N2[12] N3K[0] N3[40] N4[29] N4Ü[0] N5[14] N6K[0] N6[5]
!!!n7k: 0] N7[0] O1[0] O2K[0] O2[0] O3K[0] O3[0] HÖ[0
!!!RNB: symbol: &auml;      = a umlaut  (UTF-8: Å„)
